symbols/web/chevron_left/materialsymbolsrounded/chevron_left_wght100gradN25_20px.svg

<svg xmlns="http://www.w3.org/2000/svg" height="20" width="20"><path d="m11.438 13.958-3.5-3.5q-.126-.125-.178-.239-.052-.115-.052-.219 0-.125.052-.24.052-.114.178-.218l3.5-3.5q.124-.146.218-.146t.24.146q.125.146.125.239 0 .094-.125.219l-3.5 3.5 3.5 3.5q.125.125.125.219 0 .093-.125.219-.146.145-.24.145t-.218-.125Z"/></svg>

<svg xmlns="http://www.w3.org/2000/svg" height="20" width="20"><path d="M11.438 13.958 7.938 10.458Q7.812 10.333 7.76 10.219Q7.708 10.104 7.708 10Q7.708 9.875 7.76 9.76Q7.812 9.646 7.938 9.542L11.438 6.042Q11.562 5.896 11.656 5.896Q11.75 5.896 11.896 6.042Q12.021 6.188 12.021 6.281Q12.021 6.375 11.896 6.5L8.396 10L11.896 13.5Q12.021 13.625 12.021 13.719Q12.021 13.812 11.896 13.938Q11.75 14.083 11.656 14.083Q11.562 14.083 11.438 13.958Z"/></svg>
